T: Hen Ferchetan
R: Reel
M: 4/4
L: 1/8
K: Edor
|:e2 e2 B2 d2|c2 BA B2 B2|EFGA B2 B2|BAGF E2 B2:|
e2e f g2 eg|fe d2 e2 B2|edef g2 eg|fe d2 e2 B2|
e2 e2 B2 d2|c2 BA B2 B2|EFGA B2 B2|BAGF E4||
